X: 7754
T:the Scattery Island Slide
R:Slide
O:Ireland
M:12/8
K:D
FGA d2d FGA d2d | e2A cBA e2A cBA |\
FGA d2d FGA d2d | e2A cBA B2c d :|
|:fg |\
~a3 f2e (~d3d)ef | ~g3 ~f2d (~e3e)fg |\
~a3 f2e (~d3d)cd | e2A cBA B2c d :|
